icons/justify-left.svg

<svg xmlns="http://www.w3.org/2000/svg" width="96" height="96"><path d="M8 16c-1.1 0-2.1-.4-2.8-1.2C4.4 14.1 4 13.1 4 12c0-1.1.4-2.1 1.2-2.8C5.9 8.4 6.9 8 8 8h80c1.1 0 2.1.4 2.8 1.2.8.7 1.2 1.7 1.2 2.8 0 1.1-.4 2.1-1.2 2.8-.7.8-1.7 1.2-2.8 1.2H8zm0 48c-1.1 0-2.1-.4-2.8-1.2C4.4 62.1 4 61.1 4 60c0-1.1.4-2.1 1.2-2.8.7-.8 1.7-1.2 2.8-1.2h80c1.1 0 2.1.4 2.8 1.2.8.7 1.2 1.7 1.2 2.8 0 1.1-.4 2.1-1.2 2.8-.7.8-1.7 1.2-2.8 1.2H8zm0-24c-1.1 0-2.1-.4-2.8-1.2C4.4 38.1 4 37.1 4 36c0-1.1.4-2.1 1.2-2.8.7-.8 1.7-1.2 2.8-1.2h80c1.1 0 2.1.4 2.8 1.2.8.7 1.2 1.7 1.2 2.8 0 1.1-.4 2.1-1.2 2.8-.7.8-1.7 1.2-2.8 1.2H8zm0 48c-1.1 0-2.1-.4-2.8-1.2C4.4 86.1 4 85.1 4 84c0-1.1.4-2.1 1.2-2.8.7-.8 1.7-1.2 2.8-1.2h48c1.1 0 2.1.4 2.8 1.2.8.7 1.2 1.7 1.2 2.8 0 1.1-.4 2.1-1.2 2.8-.7.8-1.7 1.2-2.8 1.2H8z" fill-rule="evenodd" fill="#454545"/></svg>

<?xml version="1.0" standalone="no"?><!-- Generator: Gravit.io --><svg xmlns="http://www.w3.org/2000/svg" xmlns:xlink="http://www.w3.org/1999/xlink" width="96" height="96"><path d=" M 8 16 C 6.9 16 5.9 15.6 5.2 14.8 C 4.4 14.1 4 13.1 4 12 C 4 10.9 4.4 9.9 5.2 9.2 C 5.9 8.4 6.9 8 8 8 L 88 8 C 89.1 8 90.1 8.4 90.8 9.2 C 91.6 9.9 92 10.9 92 12 C 92 13.1 91.6 14.1 90.8 14.8 C 90.1 15.6 89.1 16 88 16 L 8 16 Z  M 8 64 C 6.9 64 5.9 63.6 5.2 62.8 C 4.4 62.1 4 61.1 4 60 C 4 58.9 4.4 57.9 5.2 57.2 C 5.9 56.4 6.9 56 8 56 L 88 56 C 89.1 56 90.1 56.4 90.8 57.2 C 91.6 57.9 92 58.9 92 60 C 92 61.1 91.6 62.1 90.8 62.8 C 90.1 63.6 89.1 64 88 64 L 8 64 Z  M 8 40 C 6.899999999999999 40 5.899999999999999 39.6 5.199999999999999 38.8 C 4.399999999999999 38.1 4 37.1 4 36 C 4 34.9 4.399999999999999 33.9 5.199999999999999 33.2 C 5.899999999999999 32.4 6.899999999999999 32 8 32 L 88 32 C 89.1 32 90.1 32.4 90.8 33.2 C 91.6 33.9 92 34.9 92 36 C 92 37.1 91.6 38.1 90.8 38.8 C 90.1 39.6 89.1 40 88 40 L 8 40 Z  M 8 88 C 6.9 88 5.9 87.6 5.2 86.8 C 4.4 86.1 4 85.1 4 84 C 4 82.9 4.4 81.9 5.2 81.2 C 5.9 80.4 6.9 80 8 80 L 56 80 C 57.1 80 58.1 80.4 58.8 81.2 C 59.6 81.9 60 82.9 60 84 C 60 85.1 59.6 86.1 58.8 86.8 C 58.1 87.6 57.1 88 56 88 L 8 88 Z " fill-rule="evenodd" fill="#454545" stroke="none"/><mask id="_mask_E7lG7Mlmw1nq391ISJfpn1IIlPiXfBcM"><path d=" M 8 16 C 6.9 16 5.9 15.6 5.2 14.8 C 4.4 14.1 4 13.1 4 12 C 4 10.9 4.4 9.9 5.2 9.2 C 5.9 8.4 6.9 8 8 8 L 88 8 C 89.1 8 90.1 8.4 90.8 9.2 C 91.6 9.9 92 10.9 92 12 C 92 13.1 91.6 14.1 90.8 14.8 C 90.1 15.6 89.1 16 88 16 L 8 16 Z  M 8 64 C 6.9 64 5.9 63.6 5.2 62.8 C 4.4 62.1 4 61.1 4 60 C 4 58.9 4.4 57.9 5.2 57.2 C 5.9 56.4 6.9 56 8 56 L 88 56 C 89.1 56 90.1 56.4 90.8 57.2 C 91.6 57.9 92 58.9 92 60 C 92 61.1 91.6 62.1 90.8 62.8 C 90.1 63.6 89.1 64 88 64 L 8 64 Z  M 8 40 C 6.899999999999999 40 5.899999999999999 39.6 5.199999999999999 38.8 C 4.399999999999999 38.1 4 37.1 4 36 C 4 34.9 4.399999999999999 33.9 5.199999999999999 33.2 C 5.899999999999999 32.4 6.899999999999999 32 8 32 L 88 32 C 89.1 32 90.1 32.4 90.8 33.2 C 91.6 33.9 92 34.9 92 36 C 92 37.1 91.6 38.1 90.8 38.8 C 90.1 39.6 89.1 40 88 40 L 8 40 Z  M 8 88 C 6.9 88 5.9 87.6 5.2 86.8 C 4.4 86.1 4 85.1 4 84 C 4 82.9 4.4 81.9 5.2 81.2 C 5.9 80.4 6.9 80 8 80 L 56 80 C 57.1 80 58.1 80.4 58.8 81.2 C 59.6 81.9 60 82.9 60 84 C 60 85.1 59.6 86.1 58.8 86.8 C 58.1 87.6 57.1 88 56 88 L 8 88 Z " fill-rule="evenodd" fill="white" stroke="none"/></mask><path d=" M 8 16 C 6.9 16 5.9 15.6 5.2 14.8 C 4.4 14.1 4 13.1 4 12 C 4 10.9 4.4 9.9 5.2 9.2 C 5.9 8.4 6.9 8 8 8 L 88 8 C 89.1 8 90.1 8.4 90.8 9.2 C 91.6 9.9 92 10.9 92 12 C 92 13.1 91.6 14.1 90.8 14.8 C 90.1 15.6 89.1 16 88 16 L 8 16 Z  M 8 64 C 6.9 64 5.9 63.6 5.2 62.8 C 4.4 62.1 4 61.1 4 60 C 4 58.9 4.4 57.9 5.2 57.2 C 5.9 56.4 6.9 56 8 56 L 88 56 C 89.1 56 90.1 56.4 90.8 57.2 C 91.6 57.9 92 58.9 92 60 C 92 61.1 91.6 62.1 90.8 62.8 C 90.1 63.6 89.1 64 88 64 L 8 64 Z  M 8 40 C 6.899999999999999 40 5.899999999999999 39.6 5.199999999999999 38.8 C 4.399999999999999 38.1 4 37.1 4 36 C 4 34.9 4.399999999999999 33.9 5.199999999999999 33.2 C 5.899999999999999 32.4 6.899999999999999 32 8 32 L 88 32 C 89.1 32 90.1 32.4 90.8 33.2 C 91.6 33.9 92 34.9 92 36 C 92 37.1 91.6 38.1 90.8 38.8 C 90.1 39.6 89.1 40 88 40 L 8 40 Z  M 8 88 C 6.9 88 5.9 87.6 5.2 86.8 C 4.4 86.1 4 85.1 4 84 C 4 82.9 4.4 81.9 5.2 81.2 C 5.9 80.4 6.9 80 8 80 L 56 80 C 57.1 80 58.1 80.4 58.8 81.2 C 59.6 81.9 60 82.9 60 84 C 60 85.1 59.6 86.1 58.8 86.8 C 58.1 87.6 57.1 88 56 88 L 8 88 Z " fill-rule="evenodd" fill="none" stroke="none" stroke-width="16" mask="url(#_mask_E7lG7Mlmw1nq391ISJfpn1IIlPiXfBcM)"/></svg>
